packages/icons/raw/imported/GenericDelete.svg

<svg width="32" height="32" viewBox="0 0 32 32" fill="none" xmlns="http://www.w3.org/2000/svg">
<path d="M16 21.8462L16 13.0769M6.5 9.42308H8.69231M25.5 9.42308H23.3077M19.6538 9.42308H12.3462M19.6538 9.42308V7.96154C19.6538 7.15435 18.9995 6.5 18.1923 6.5H13.8077C13.0005 6.5 12.3462 7.15435 12.3462 7.96154V9.42308M19.6538 9.42308H23.3077M12.3462 9.42308H8.69231M23.3077 9.42308V22.5769C23.3077 24.1913 21.999 25.5 20.3846 25.5H11.6154C10.001 25.5 8.69231 24.1913 8.69231 22.5769V9.42308" stroke="black" stroke-linecap="round" stroke-linejoin="round"/>
</svg>

<svg width="32" height="32" fill="none" xmlns="http://www.w3.org/2000/svg"><path d="M16 21.846v-8.77M6.5 9.424h2.192m16.808 0h-2.192m-3.654 0h-7.308m7.308 0V7.962c0-.808-.654-1.462-1.462-1.462h-4.384c-.807 0-1.462.654-1.462 1.462v1.461m7.308 0h3.654m-10.962 0H8.692m14.616 0v13.154a2.923 2.923 0 0 1-2.923 2.923h-8.77a2.923 2.923 0 0 1-2.923-2.923V9.423" stroke="#000" stroke-linecap="round" stroke-linejoin="round"/></svg>
